;FLAVOR:Marlin
;TIME:1164
;Filament used: 0.507913m
;Layer height: 0.16
;MINX:86.819
;MINY:84.652
;MINZ:0.2
;MAXX:133.182
;MAXY:131.008
;MAXZ:7.88
;Generated with Cura_SteamEngine 4.7.1
M140 S60
M105
M190 S60
M104 S200
M105
M109 S200
M82 ;absolute extrusion mode
; Ender 3 Custom Start G-code
G92 E0 ; Reset Extruder
G28 ; Home all axes
G1 Z2.0 F3000 ; Move Z Axis up little to prevent scratching of Heat Bed
G1 X0.1 Y20 Z0.3 F5000.0 ; Move to start position
G1 X0.1 Y200.0 Z0.3 F1500.0 E15 ; Draw the first line
G1 X0.4 Y200.0 Z0.3 F5000.0 ; Move to side a little
G1 X0.4 Y20 Z0.3 F1500.0 E30 ; Draw the second line
G92 E0 ; Reset Extruder
G1 Z2.0 F3000 ; Move Z Axis up little to prevent scratching of Heat Bed
G1 X5 Y20 Z0.3 F5000.0 ; Move over to prevent blob squish
G92 E0
G92 E0
G1 F1500 E-6.5
;LAYER_COUNT:41
;LAYER:0
M107
G0 F6000 X93.176 Y91.892 Z0.2
;TYPE:SKIRT
G1 F1500 E0
G1 F1200 X94.1 Y90.97 E0.04342
G1 X94.572 Y90.527 E0.06495
G1 X94.784 Y90.339 E0.07437
G1 X95.123 Y90.05 E0.08919
G1 X95.254 Y89.943 E0.09481
G1 X95.519 Y89.733 E0.10606
G1 X95.712 Y89.585 E0.11415
G1 X95.904 Y89.441 E0.12213
G1 X96.166 Y89.249 E0.13293
G1 X96.657 Y88.882 E0.15332
G1 X96.989 Y88.643 E0.16693
G1 X97.099 Y88.567 E0.17137
G1 X97.587 Y88.249 E0.19075
G1 X97.821 Y88.105 E0.19989
G1 X98.31 Y87.821 E0.21869
G1 X99.47 Y87.187 E0.26266
G1 X99.827 Y87 E0.27607
G1 X99.991 Y86.918 E0.28217
G1 X100.571 Y86.649 E0.30343
G1 X100.783 Y86.558 E0.3111
G1 X101.078 Y86.436 E0.32172
G1 X101.334 Y86.337 E0.33085
G1 X102.235 Y85.998 E0.36287
G1 X102.43 Y85.926 E0.36978
G1 X102.709 Y85.827 E0.37963
G1 X103.028 Y85.72 E0.39082
G1 X103.187 Y85.669 E0.39637
G1 X103.64 Y85.534 E0.41209
G1 X103.848 Y85.477 E0.41927
G1 X104.352 Y85.352 E0.43654
G1 X105.232 Y85.155 E0.46653
G1 X105.435 Y85.111 E0.47344
G1 X105.778 Y85.041 E0.48508
G1 X106.069 Y84.986 E0.49493
G1 X106.279 Y84.949 E0.50203
G1 X106.572 Y84.901 E0.5119
G1 X106.774 Y84.871 E0.51869
G1 X107.111 Y84.826 E0.53
G1 X107.485 Y84.787 E0.54251
G1 X107.937 Y84.747 E0.5576
G1 X108.232 Y84.725 E0.56744
G1 X108.85 Y84.687 E0.58803
G1 X109.228 Y84.67 E0.60062
G1 X109.895 Y84.652 E0.62281
G1 X110.815 Y84.666 E0.65341
G1 X111.45 Y84.702 E0.67457
G1 X111.73 Y84.721 E0.6839
G1 X112.264 Y84.765 E0.70172
G1 X112.615 Y84.8 E0.71346
G1 X113.042 Y84.849 E0.72775
G1 X113.47 Y84.906 E0.74211
G1 X113.638 Y84.932 E0.74777
G1 X114.282 Y85.052 E0.76955
G1 X114.964 Y85.199 E0.79276
G1 X115.215 Y85.252 E0.80129
G1 X115.791 Y85.39 E0.82099
G1 X116.466 Y85.571 E0.84423
G1 X117.287 Y85.826 E0.87283
G1 X117.79 Y86.004 E0.89057
G1 X118.064 Y86.105 E0.90029
G1 X118.806 Y86.39 E0.92672
G1 X119.307 Y86.597 E0.94475
G1 X119.556 Y86.707 E0.95381
G1 X120.03 Y86.93 E0.97123
G1 X120.224 Y87.027 E0.97844
G1 X120.6 Y87.224 E0.99256
G1 X121.048 Y87.47 E1.00956
G1 X121.653 Y87.799 E1.03247
G1 X122.05 Y88.026 E1.04768
G1 X122.232 Y88.135 E1.05473
G1 X122.759 Y88.471 E1.07552
G1 X122.949 Y88.6 E1.08316
G1 X123.228 Y88.796 E1.0945
G1 X123.435 Y88.948 E1.10304
G1 X124.193 Y89.519 E1.13461
G1 X124.456 Y89.724 E1.1457
G1 X124.946 Y90.117 E1.16659
G1 X125.564 Y90.651 E1.19375
G1 X125.726 Y90.802 E1.20112
G1 X126.023 Y91.089 E1.21486
G1 X126.861 Y91.931 E1.25437
G1 X127.057 Y92.134 E1.26375
G1 X127.161 Y92.244 E1.26879
G1 X127.628 Y92.77 E1.29218
G1 X127.81 Y92.989 E1.30165
G1 X128.162 Y93.436 E1.32058
G1 X128.942 Y94.48 E1.36392
G1 X129.104 Y94.702 E1.37306
G1 X129.199 Y94.836 E1.37853
G1 X129.638 Y95.506 E1.40517
G1 X129.765 Y95.716 E1.41333
G1 X129.911 Y95.966 E1.42296
G1 X130.103 Y96.308 E1.436
G1 X130.668 Y97.349 E1.4754
G1 X130.95 Y97.904 E1.4961
G1 X131.048 Y98.111 E1.50372
G1 X131.239 Y98.537 E1.51925
G1 X131.299 Y98.679 E1.52438
G1 X131.406 Y98.942 E1.53382
G1 X131.603 Y99.444 E1.55176
G1 X131.745 Y99.822 E1.56519
G1 X132.002 Y100.542 E1.59061
G1 X132.096 Y100.817 E1.60028
G1 X132.125 Y100.906 E1.60339
G1 X132.277 Y101.413 E1.621
G1 X132.35 Y101.68 E1.6302
G1 X132.483 Y102.221 E1.64873
G1 X132.579 Y102.658 E1.66362
G1 X132.679 Y103.098 E1.67862
G1 X132.726 Y103.315 E1.68601
G1 X132.799 Y103.669 E1.69803
G1 X132.857 Y103.969 E1.70819
G1 X132.89 Y104.155 E1.71448
G1 X132.992 Y104.862 E1.73823
G1 X133.016 Y105.078 E1.74546
G1 X133.044 Y105.37 E1.75522
G1 X133.092 Y105.94 E1.77424
G1 X133.11 Y106.179 E1.78222
G1 X133.158 Y106.95 E1.80791
G1 X133.173 Y107.261 E1.81826
G1 X133.177 Y107.379 E1.82219
G1 X133.182 Y107.913 E1.83995
G1 X133.178 Y108.186 E1.84903
G1 X133.152 Y108.8 E1.86947
G1 X133.109 Y109.409 E1.88978
G1 X133.092 Y109.686 E1.89901
G1 X133.075 Y109.924 E1.90695
G1 X133.061 Y110.091 E1.91252
G1 X133.025 Y110.448 E1.92445
G1 X132.963 Y110.979 E1.94224
G1 X132.874 Y111.588 E1.96271
G1 X132.79 Y112.03 E1.97767
G1 X132.599 Y112.931 E2.0083
G1 X132.534 Y113.22 E2.01816
G1 X132.439 Y113.609 E2.03147
G1 X132.272 Y114.237 E2.05309
G1 X132.14 Y114.691 E2.06881
G1 X132.006 Y115.102 E2.08319
G1 X131.868 Y115.492 E2.09695
G1 X131.692 Y115.968 E2.11383
G1 X131.431 Y116.645 E2.13796
G1 X131.238 Y117.112 E2.15477
G1 X131.126 Y117.367 E2.16403
G1 X130.905 Y117.84 E2.1814
G1 X130.819 Y118.013 E2.18782
G1 X130.618 Y118.398 E2.20227
G1 X129.994 Y119.538 E2.24549
G1 X129.722 Y120.007 E2.26353
G1 X129.63 Y120.157 E2.26938
G1 X129.398 Y120.519 E2.28368
G1 X129.277 Y120.7 E2.29092
G1 X128.936 Y121.182 E2.31056
G1 X128.16 Y122.218 E2.35361
G1 X127.785 Y122.69 E2.37366
G1 X127.593 Y122.919 E2.3836
G1 X127.215 Y123.348 E2.40262
G1 X127.026 Y123.551 E2.41184
G1 X126.728 Y123.858 E2.42607
G1 X126.109 Y124.473 E2.45509
G1 X125.841 Y124.731 E2.46747
G1 X125.351 Y125.186 E2.48971
G1 X124.785 Y125.677 E2.51463
G1 X124.675 Y125.766 E2.51934
G1 X124.34 Y126.026 E2.53344
G1 X123.347 Y126.768 E2.57467
G1 X123.113 Y126.938 E2.58429
G1 X122.997 Y127.02 E2.58901
G1 X122.372 Y127.431 E2.61389
G1 X122.139 Y127.573 E2.62297
G1 X121.69 Y127.832 E2.64021
G1 X120.53 Y128.466 E2.68418
G1 X120.173 Y128.653 E2.69758
G1 X120.015 Y128.732 E2.70346
G1 X119.47 Y128.986 E2.72346
G1 X119.26 Y129.077 E2.73107
G1 X118.774 Y129.274 E2.74851
G1 X117.779 Y129.65 E2.78389
G1 X117.512 Y129.747 E2.79334
G1 X117.403 Y129.785 E2.79718
G1 X117.133 Y129.875 E2.80664
G1 X116.664 Y130.025 E2.82302
G1 X116.137 Y130.179 E2.84128
G1 X115.724 Y130.283 E2.85545
G1 X115.083 Y130.431 E2.87733
G1 X114.827 Y130.487 E2.88604
G1 X114.254 Y130.605 E2.9055
G1 X113.962 Y130.661 E2.91539
G1 X113.726 Y130.703 E2.92336
G1 X113.343 Y130.764 E2.93626
G1 X113.089 Y130.8 E2.94479
G1 X112.515 Y130.866 E2.96401
G1 X112.063 Y130.906 E2.9791
G1 X111.775 Y130.928 E2.98871
G1 X110.873 Y130.984 E3.01877
G1 X110.564 Y130.999 E3.02906
G1 X110.446 Y131.003 E3.03298
G1 X109.906 Y131.008 E3.05095
G1 X109.643 Y131.004 E3.05969
G1 X109.041 Y130.978 E3.07974
G1 X108.885 Y130.967 E3.08494
G1 X108.594 Y130.95 E3.09463
G1 X108.404 Y130.937 E3.10097
G1 X107.957 Y130.903 E3.11588
G1 X107.571 Y130.867 E3.12877
G1 X106.845 Y130.786 E3.15307
G1 X105.758 Y130.609 E3.1897
G1 X104.709 Y130.383 E3.22539
G1 X104.452 Y130.324 E3.23416
G1 X104.108 Y130.239 E3.24594
G1 X103.672 Y130.124 E3.26094
G1 X103.031 Y129.934 E3.28318
G1 X102.686 Y129.817 E3.29529
G1 X102.153 Y129.627 E3.31411
G1 X101.899 Y129.533 E3.32312
G1 X101.189 Y129.26 E3.34842
G1 X100.703 Y129.06 E3.3659
G1 X100.451 Y128.949 E3.37506
G1 X99.946 Y128.711 E3.39363
G1 X99.745 Y128.61 E3.40111
G1 X99.413 Y128.436 E3.41358
G1 X98.325 Y127.842 E3.45481
G1 X97.913 Y127.605 E3.47062
G1 X97.739 Y127.5 E3.47737
G1 X97.255 Y127.191 E3.49647
G1 X97.063 Y127.061 E3.50419
G1 X96.78 Y126.863 E3.51567
G1 X96.539 Y126.685 E3.52564
G1 X95.568 Y125.956 E3.56602
G1 X95.267 Y125.721 E3.57872
G1 X95.154 Y125.63 E3.58355
G1 X94.648 Y125.197 E3.6057
G1 X94.447 Y125.014 E3.61474
G1 X94.065 Y124.65 E3.63229
G1 X93.144 Y123.727 E3.67566
G1 X92.851 Y123.421 E3.68975
G1 X92.754 Y123.316 E3.6945
G1 X92.416 Y122.933 E3.71149
G1 X92.236 Y122.719 E3.72079
G1 X91.865 Y122.253 E3.74061
G1 X91.212 Y121.384 E3.77676
G1 X91.02 Y121.123 E3.78754
G1 X90.886 Y120.937 E3.79516
G1 X90.779 Y120.785 E3.80134
G1 X90.36 Y120.143 E3.82684
G1 X90.221 Y119.913 E3.83578
G1 X90.059 Y119.636 E3.84645
G1 X89.897 Y119.345 E3.85753
G1 X89.332 Y118.304 E3.89693
G1 X89.042 Y117.732 E3.91826
G1 X88.935 Y117.505 E3.9266
G1 X88.736 Y117.058 E3.94288
G1 X88.685 Y116.936 E3.94727
G1 X88.588 Y116.695 E3.95592
G1 X88.397 Y116.206 E3.97338
G1 X88.202 Y115.685 E3.99188
G1 X88.085 Y115.357 E4.00346
G1 X87.959 Y114.981 E4.01665
G1 X87.783 Y114.425 E4.03605
G1 X87.662 Y114.014 E4.0503
G1 X87.55 Y113.581 E4.06517
G1 X87.458 Y113.193 E4.07844
G1 X87.408 Y112.972 E4.08597
G1 X87.338 Y112.645 E4.09709
G1 X87.199 Y111.971 E4.11998
G1 X87.146 Y111.698 E4.12923
G1 X87.128 Y111.598 E4.13261
G1 X87.044 Y111.054 E4.15092
G1 X87.006 Y110.759 E4.16081
G1 X86.954 Y110.268 E4.17724
G1 X86.906 Y109.692 E4.19646
G1 X86.889 Y109.458 E4.20426
G1 X86.842 Y108.699 E4.22956
G1 X86.827 Y108.392 E4.23978
G1 X86.823 Y108.274 E4.24371
G1 X86.819 Y107.715 E4.2623
G1 X86.824 Y107.419 E4.27215
G1 X86.85 Y106.823 E4.29199
G1 X86.894 Y106.206 E4.31256
G1 X86.911 Y105.931 E4.32172
G1 X86.939 Y105.563 E4.334
G1 X86.974 Y105.207 E4.3459
G1 X87.032 Y104.703 E4.36277
G1 X87.146 Y103.945 E4.38827
G1 X87.213 Y103.61 E4.39963
G1 X87.45 Y102.5 E4.43738
G1 X87.534 Y102.133 E4.4499
G1 X87.645 Y101.693 E4.46499
G1 X87.678 Y101.572 E4.46917
G1 X87.777 Y101.228 E4.48107
G1 X87.862 Y100.952 E4.49068
G1 X88.06 Y100.369 E4.51116
G1 X88.268 Y99.808 E4.53106
G1 X88.345 Y99.595 E4.53859
G1 X88.421 Y99.392 E4.5458
G1 X88.573 Y98.997 E4.55988
G1 X88.775 Y98.508 E4.57747
G1 X88.88 Y98.27 E4.58612
G1 X89.094 Y97.812 E4.60294
G1 X89.184 Y97.631 E4.60966
G1 X89.404 Y97.213 E4.62537
G1 X89.701 Y96.675 E4.64581
G1 X89.998 Y96.13 E4.66646
G1 X90.276 Y95.649 E4.68493
G1 X90.371 Y95.494 E4.69098
G1 X90.613 Y95.117 E4.70588
G1 X90.735 Y94.935 E4.71317
G1 X90.946 Y94.631 E4.72548
G1 X91.12 Y94.395 E4.73523
G1 X91.33 Y94.117 E4.74682
G1 X91.863 Y93.404 E4.77642
G1 X92.182 Y92.998 E4.7936
G1 X92.285 Y92.873 E4.79898
G1 X92.639 Y92.464 E4.81698
G1 X92.811 Y92.275 E4.82548
G1 X93.176 Y91.892 E4.84307
G0 F6000 X93.459 Y92.176
G1 F1200 X94.383 Y91.254 E4.88649
G1 X94.837 Y90.826 E4.90724
G1 X95.049 Y90.638 E4.91666
G1 X95.377 Y90.359 E4.93099
G1 X95.508 Y90.252 E4.93661
G1 X95.763 Y90.05 E4.94743
G1 X95.956 Y89.902 E4.95552
G1 X96.14 Y89.764 E4.96317
G1 X96.348 Y89.612 E4.97174
G1 X96.896 Y89.202 E4.9945
G1 X97.217 Y88.972 E5.00764
G1 X97.327 Y88.896 E5.01208
G1 X97.797 Y88.589 E5.03076
G1 X98.031 Y88.445 E5.03989
G1 X98.502 Y88.172 E5.058
G1 X99.662 Y87.538 E5.10197
G1 X100.006 Y87.358 E5.11488
G1 X100.17 Y87.276 E5.12098
G1 X100.729 Y87.016 E5.14149
G1 X100.941 Y86.925 E5.14916
G1 X101.225 Y86.808 E5.15938
G1 X101.475 Y86.711 E5.16829
G1 X102.376 Y86.372 E5.20031
G1 X102.564 Y86.303 E5.20697
G1 X102.843 Y86.204 E5.21682
G1 X103.15 Y86.101 E5.22759
G1 X103.309 Y86.05 E5.23314
G1 X103.745 Y85.92 E5.24828
G1 X103.953 Y85.863 E5.25545
G1 X104.439 Y85.742 E5.27211
G1 X105.319 Y85.545 E5.3021
G1 X105.515 Y85.503 E5.30877
G1 X105.858 Y85.433 E5.32041
G1 X106.139 Y85.38 E5.32992
G1 X106.349 Y85.343 E5.33701
G1 X106.631 Y85.297 E5.34652
G1 X106.833 Y85.267 E5.35331
G1 X107.16 Y85.223 E5.36428
G1 X107.521 Y85.185 E5.37636
G1 X107.973 Y85.145 E5.39145
G1 X108.256 Y85.124 E5.40089
G1 X108.874 Y85.086 E5.42148
G1 X109.239 Y85.07 E5.43363
G1 X109.906 Y85.052 E5.45583
G1 X110.792 Y85.065 E5.4853
G1 X111.427 Y85.101 E5.50645
G1 X111.697 Y85.12 E5.51545
G1 X112.231 Y85.164 E5.53327
G1 X112.569 Y85.197 E5.54457
G1 X112.996 Y85.246 E5.55887
G1 X113.409 Y85.302 E5.57273
G1 X113.577 Y85.328 E5.57838
G1 X114.197 Y85.443 E5.59935
G1 X115.132 Y85.644 E5.63116
G1 X115.687 Y85.777 E5.65015
G1 X116.362 Y85.958 E5.67339
G1 X117.153 Y86.203 E5.70093
G1 X117.656 Y86.381 E5.71868
G1 X117.921 Y86.479 E5.72807
G1 X118.663 Y86.764 E5.75451
G1 X119.145 Y86.963 E5.77186
G1 X119.394 Y87.073 E5.78091
G1 X119.851 Y87.288 E5.79771
G1 X120.045 Y87.385 E5.80492
G1 X120.407 Y87.575 E5.81852
G1 X120.857 Y87.822 E5.83559
G1 X121.462 Y88.151 E5.8585
G1 X121.844 Y88.369 E5.87313
G1 X122.026 Y88.478 E5.88018
G1 X122.534 Y88.802 E5.90022
G1 X122.724 Y88.931 E5.90786
G1 X122.995 Y89.121 E5.91887
G1 X123.194 Y89.267 E5.92708
G1 X123.952 Y89.838 E5.95864
G1 X124.206 Y90.036 E5.96935
G1 X124.696 Y90.429 E5.99025
G1 X125.291 Y90.944 E6.01642
G1 X125.453 Y91.095 E6.02378
G1 X125.739 Y91.372 E6.03703
G1 X126.577 Y92.214 E6.07654
G1 X126.766 Y92.409 E6.08557
G1 X126.87 Y92.519 E6.09061
G1 X127.32 Y93.026 E6.11315
G1 X127.502 Y93.245 E6.12262
G1 X127.842 Y93.676 E6.14088
G1 X128.622 Y94.72 E6.18423
G1 X128.777 Y94.933 E6.19299
G1 X128.872 Y95.067 E6.19845
G1 X129.295 Y95.713 E6.22413
G1 X129.422 Y95.923 E6.2323
G1 X129.564 Y96.163 E6.24157
G1 X129.642 Y96.3 E6.24682
G1 X129.751 Y96.498 E6.25433
G1 X130.316 Y97.54 E6.29376
G1 X130.589 Y98.075 E6.31373
G1 X130.687 Y98.282 E6.32135
G1 X130.87 Y98.692 E6.33628
G1 X130.93 Y98.834 E6.34141
G1 X131.033 Y99.088 E6.35053
G1 X131.23 Y99.59 E6.36846
G1 X131.301 Y99.775 E6.37505
G1 X131.42 Y100.099 E6.38653
G1 X131.625 Y100.676 E6.4069
G1 X131.744 Y101.03 E6.41932
G1 X131.891 Y101.518 E6.43627
G1 X131.964 Y101.785 E6.44548
G1 X132.092 Y102.307 E6.46336
G1 X132.171 Y102.668 E6.47565
G1 X132.289 Y103.187 E6.49335
G1 X132.335 Y103.396 E6.50047
G1 X132.408 Y103.75 E6.51249
G1 X132.463 Y104.039 E6.52227
G1 X132.496 Y104.225 E6.52856
G1 X132.594 Y104.906 E6.55144
G1 X132.618 Y105.122 E6.55867
G1 X132.646 Y105.404 E6.56809
G1 X132.694 Y105.974 E6.58712
G1 X132.711 Y106.204 E6.59479
G1 X132.759 Y106.975 E6.62048
G1 X132.773 Y107.275 E6.63047
G1 X132.777 Y107.393 E6.6344
G1 X132.782 Y107.907 E6.6515
G1 X132.778 Y108.18 E6.66058
G1 X132.753 Y108.772 E6.68029
G1 X132.71 Y109.381 E6.70059
G1 X132.693 Y109.661 E6.70992
G1 X132.662 Y110.058 E6.72317
G1 X132.627 Y110.401 E6.73463
G1 X132.565 Y110.932 E6.75241
G1 X132.48 Y111.519 E6.77214
G1 X132.399 Y111.947 E6.78663
G1 X132.208 Y112.848 E6.81726
G1 X132.144 Y113.131 E6.82691
G1 X132.052 Y113.506 E6.83976
G1 X131.885 Y114.134 E6.86137
G1 X131.758 Y114.572 E6.87654
G1 X131.628 Y114.97 E6.89046
G1 X131.548 Y115.199 E6.89853
G1 X131.379 Y115.662 E6.91492
G1 X131.318 Y115.824 E6.92068
G1 X131.057 Y116.501 E6.94481
G1 X130.872 Y116.951 E6.961
G1 X130.76 Y117.206 E6.97026
G1 X130.547 Y117.662 E6.987
G1 X130.461 Y117.835 E6.99342
G1 X130.267 Y118.206 E7.00735
G1 X129.643 Y119.346 E7.05057
G1 X129.381 Y119.798 E7.06795
G1 X129.289 Y119.948 E7.0738
G1 X129.065 Y120.297 E7.0876
G1 X128.944 Y120.478 E7.09484
G1 X128.616 Y120.942 E7.11374
G1 X127.84 Y121.978 E7.15679
G1 X127.479 Y122.433 E7.17611
G1 X127.287 Y122.662 E7.18605
G1 X126.922 Y123.075 E7.20438
G1 X126.733 Y123.278 E7.2136
G1 X126.446 Y123.575 E7.22734
G1 X125.827 Y124.19 E7.25636
G1 X125.569 Y124.438 E7.26827
G1 X125.079 Y124.893 E7.29051
G1 X124.533 Y125.366 E7.31453
G1 X124.423 Y125.455 E7.31924
G1 X124.101 Y125.705 E7.3328
G1 X123.108 Y126.447 E7.37403
G1 X122.882 Y126.612 E7.38333
G1 X122.766 Y126.694 E7.38806
G1 X122.163 Y127.09 E7.41205
G1 X121.93 Y127.232 E7.42113
G1 X121.498 Y127.481 E7.43771
G1 X120.338 Y128.115 E7.48168
G1 X119.994 Y128.295 E7.49459
G1 X119.836 Y128.374 E7.50047
G1 X119.311 Y128.619 E7.51974
G1 X119.101 Y128.71 E7.52735
G1 X118.633 Y128.9 E7.54415
G1 X117.638 Y129.276 E7.57953
G1 X117.271 Y129.407 E7.59249
G1 X117.011 Y129.494 E7.60161
G1 X116.542 Y129.644 E7.61799
G1 X116.034 Y129.793 E7.63559
G1 X115.634 Y129.893 E7.64931
G1 X114.993 Y130.041 E7.67119
G1 X114.746 Y130.095 E7.6796
G1 X114.173 Y130.213 E7.69905
G1 X113.892 Y130.267 E7.70857
G1 X113.656 Y130.309 E7.71654
G1 X113.286 Y130.368 E7.72901
G1 X113.032 Y130.404 E7.73754
G1 X112.479 Y130.468 E7.75605
G1 X112.027 Y130.508 E7.77115
G1 X111.75 Y130.529 E7.78039
G1 X110.848 Y130.585 E7.81044
G1 X110.55 Y130.599 E7.82037
G1 X110.432 Y130.603 E7.82429
G1 X109.912 Y130.608 E7.84159
G1 X109.649 Y130.604 E7.85034
G1 X109.069 Y130.579 E7.86965
G1 X108.617 Y130.551 E7.88471
G1 X107.987 Y130.504 E7.90572
G1 X107.616 Y130.47 E7.91811
G1 X106.89 Y130.389 E7.94241
G1 X105.842 Y130.218 E7.97773
G1 X104.798 Y129.993 E8.01325
G1 X104.541 Y129.934 E8.02202
